dist/img/icons/viber.svg

<svg width="25" height="26" viewBox="0 0 25 26" fill="none" xmlns="http://www.w3.org/2000/svg">
<path d="M11.842 0.00378329C9.72818 0.0289708 5.18359 0.371846 2.64172 2.67366C0.750948 4.52291 0.0907851 7.25697 0.0134094 10.6378C-0.0507961 14.0064 -0.128172 20.3325 6.04954 22.055V24.6786C6.04954 24.6786 6.01085 25.7283 6.71382 25.9437C7.57977 26.2142 8.07283 25.4066 8.89598 24.5388L10.4311 22.8253C14.658 23.1722 17.8954 22.3727 18.2683 22.2541C19.126 21.9835 23.9571 21.3742 24.7465 15.0472C25.5565 8.5131 24.3522 4.39616 22.1783 2.53391H22.1651C21.5091 1.93753 18.8725 0.0411583 12.9821 0.0200333C12.9821 0.0200333 12.545 -0.00921671 11.842 0.00297079V0.00378329ZM11.9145 1.84085C12.5145 1.83678 12.8792 1.86197 12.8792 1.86197C17.865 1.87497 20.2447 3.35616 20.8061 3.85503C22.6368 5.40366 23.5801 9.11516 22.8895 14.5703C22.2334 19.8597 18.3152 20.1944 17.59 20.4227C17.2814 20.5202 14.43 21.2141 10.8378 20.9858C10.8378 20.9858 8.16256 24.1724 7.32624 24.993C7.19371 25.1368 7.03896 25.1791 6.94019 25.158C6.7986 25.1238 6.7558 24.9508 6.76403 24.7135L6.78955 20.3593C1.55022 18.9293 1.8589 13.5335 1.91488 10.715C1.97908 7.89641 2.51495 5.59053 4.11021 4.02891C6.2578 2.11222 10.1167 1.85385 11.9128 1.84085H11.9145ZM12.3096 4.6586C12.2664 4.65817 12.2237 4.66617 12.1837 4.68213C12.1437 4.6981 12.1073 4.72172 12.0767 4.75163C12.046 4.78154 12.0216 4.81715 12.0049 4.8564C11.9882 4.89566 11.9796 4.93778 11.9795 4.98035C11.9795 5.16235 12.1293 5.30616 12.3096 5.30616C13.1257 5.29084 13.9369 5.43516 14.6962 5.73079C15.4556 6.02643 16.1482 6.46753 16.734 7.02866C17.93 8.1751 18.5128 9.7156 18.535 11.7298C18.535 11.9077 18.6807 12.0556 18.8651 12.0556V12.0426C18.952 12.0428 19.0355 12.0091 19.0973 11.9488C19.1591 11.8886 19.1943 11.8066 19.1952 11.7208C19.2352 10.7728 19.0794 9.82659 18.7374 8.93979C18.3954 8.05299 17.8742 7.2441 17.2056 6.56228C15.9026 5.30535 14.2514 4.65778 12.3096 4.65778V4.6586ZM7.97076 5.40366C7.73777 5.37005 7.50014 5.41622 7.29743 5.53447H7.28014C6.80952 5.80677 6.38556 6.15093 6.02402 6.55416C5.72357 6.89703 5.56059 7.24397 5.51779 7.57791C5.49227 7.77697 5.50956 7.97603 5.56965 8.16616L5.59105 8.17916C5.92936 9.16066 6.37139 10.1048 6.91138 10.9937C7.60695 12.2424 8.46297 13.3973 9.45819 14.4297L9.48782 14.472L9.53474 14.5061L9.56437 14.5402L9.59895 14.5695C10.6486 15.5547 11.8215 16.4036 13.0891 17.0955C14.5378 17.8739 15.4169 18.242 15.9446 18.3947V18.4028C16.0993 18.4492 16.2401 18.4703 16.3817 18.4703C16.8313 18.4378 17.257 18.2576 17.5909 17.9584C17.9975 17.6015 18.3423 17.1813 18.6116 16.7145V16.7063C18.8643 16.2367 18.7787 15.7923 18.414 15.4917C17.6837 14.8616 16.894 14.3019 16.0557 13.8203C15.4943 13.5197 14.9239 13.7017 14.6926 14.0064L14.1995 14.6198C13.9468 14.9245 13.4875 14.8823 13.4875 14.8823L13.4743 14.8904C10.0492 14.0267 9.13552 10.6037 9.13552 10.6037C9.13552 10.6037 9.09271 10.1381 9.40962 9.90085L10.027 9.4101C10.3225 9.17285 10.5283 8.6106 10.2114 8.05566C9.72686 7.22703 9.16112 6.44736 8.52227 5.72785C8.38261 5.55822 8.18667 5.44281 7.96912 5.40203L7.97076 5.40366ZM12.8792 6.36891C12.4421 6.36891 12.4421 7.02053 12.8833 7.02053C13.4268 7.02924 13.9633 7.14357 14.462 7.35702C14.9607 7.57046 15.4119 7.87882 15.7898 8.26447C16.1346 8.63985 16.3995 9.07972 16.5689 9.558C16.7383 10.0363 16.8087 10.5433 16.776 11.0489C16.7775 11.1345 16.8129 11.2161 16.8745 11.2762C16.9362 11.3363 17.0193 11.3702 17.106 11.3707L17.1192 11.3877C17.2066 11.3871 17.2901 11.3526 17.3519 11.2916C17.4137 11.2306 17.4486 11.1481 17.4493 11.0619C17.4789 9.77085 17.0723 8.68778 16.2747 7.82003C15.4729 6.95228 14.3543 6.4656 12.9261 6.36891H12.8792ZM13.42 8.12066C12.9697 8.10766 12.9524 8.77228 13.3986 8.78528C14.4835 8.84053 15.0103 9.38166 15.0795 10.4948C15.081 10.5793 15.1159 10.6598 15.1768 10.7192C15.2378 10.7786 15.3198 10.8121 15.4054 10.8125H15.4186C15.4626 10.8106 15.5058 10.8001 15.5457 10.7816C15.5855 10.7631 15.6212 10.7369 15.6508 10.7046C15.6803 10.6723 15.7029 10.6345 15.7175 10.5935C15.732 10.5524 15.7382 10.5089 15.7355 10.4655C15.6581 9.01441 14.8564 8.19703 13.4332 8.12147H13.42V8.12066Z" fill="#0B0B0B"/>
</svg>

<svg width="25" height="26" viewBox="0 0 25 26" fill="none" xmlns="http://www.w3.org/2000/svg"><path d="M11.842.004c-2.114.025-6.658.368-9.2 2.67C.75 4.523.09 7.257.013 10.638c-.064 3.368-.141 9.694 6.037 11.417v2.624s-.04 1.05.664 1.265c.866.27 1.359-.537 2.182-1.405l1.535-1.714c4.227.347 7.464-.452 7.837-.57.858-.271 5.69-.88 6.479-7.208.81-6.534-.395-10.65-2.569-12.513h-.013C21.51 1.938 18.872.04 12.982.02c0 0-.437-.03-1.14-.017zm.072 1.837c.6-.004.965.021.965.021 4.986.013 7.366 1.494 7.927 1.993 1.83 1.549 2.774 5.26 2.084 10.715-.657 5.29-4.575 5.624-5.3 5.853-.309.097-3.16.791-6.752.563 0 0-2.675 3.186-3.512 4.007-.132.144-.287.186-.386.165-.141-.034-.184-.207-.176-.445l.026-4.354c-5.24-1.43-4.931-6.826-4.875-9.644.064-2.819.6-5.124 2.195-6.686 2.148-1.917 6.007-2.175 7.803-2.188h.002zm.396 2.818a.33.33 0 00-.305.197.318.318 0 00-.026.124c0 .182.15.326.33.326a6.256 6.256 0 012.387.425c.76.295 1.452.737 2.038 1.298 1.196 1.146 1.779 2.687 1.801 4.7 0 .179.146.327.33.327v-.013c.087 0 .17-.034.232-.094a.323.323 0 00.098-.228 6.917 6.917 0 00-.458-2.781 6.988 6.988 0 00-1.531-2.378c-1.303-1.257-2.955-1.904-4.896-1.904zm-4.34.745a1.042 1.042 0 00-.673.13H7.28c-.47.273-.894.617-1.256 1.02-.3.343-.463.69-.506 1.024a1.36 1.36 0 00.052.588l.021.013c.338.982.78 1.926 1.32 2.815a16.57 16.57 0 002.547 3.436l.03.042.047.034.03.034.034.03a17.002 17.002 0 003.49 2.526c1.449.778 2.328 1.146 2.856 1.299v.008a1.5 1.5 0 00.437.067c.45-.032.875-.212 1.209-.512a4.94 4.94 0 001.02-1.243v-.009c.253-.47.168-.914-.197-1.214-.73-.63-1.52-1.19-2.358-1.672-.562-.3-1.132-.118-1.363.186l-.493.614c-.253.305-.712.262-.712.262l-.014.008c-3.425-.863-4.338-4.286-4.338-4.286s-.043-.466.274-.703l.617-.49c.296-.238.501-.8.184-1.355a14.626 14.626 0 00-1.689-2.328.94.94 0 00-.553-.326l.002.002zm4.91.965c-.438 0-.438.652.003.652a4.179 4.179 0 012.907 1.243c.345.376.61.816.779 1.294.17.478.24.985.207 1.49a.326.326 0 00.099.228c.061.06.144.094.231.095l.013.017a.332.332 0 00.233-.096.326.326 0 00.097-.23c.03-1.291-.377-2.374-1.174-3.242-.802-.868-1.92-1.354-3.349-1.451h-.047zm.54 1.752c-.45-.013-.468.651-.021.664 1.085.056 1.611.597 1.68 1.71a.321.321 0 00.098.224.33.33 0 00.228.094h.014a.337.337 0 00.232-.108.328.328 0 00.085-.24c-.078-1.45-.88-2.268-2.303-2.344h-.013z" fill="#0B0B0B"/></svg>
